icons/type-icons/icons/application-x-pem-key.svg

<?xml version="1.0" encoding="UTF-8" standalone="no"?>
<!-- Created with Inkscape (http://www.inkscape.org/) -->

<svg
   xmlns:dc="http://purl.org/dc/elements/1.1/"
   xmlns:cc="http://creativecommons.org/ns#"
   xmlns:rdf="http://www.w3.org/1999/02/22-rdf-syntax-ns#"
   xmlns:svg="http://www.w3.org/2000/svg"
   xmlns="http://www.w3.org/2000/svg"
   xmlns:sodipodi="http://sodipodi.sourceforge.net/DTD/sodipodi-0.dtd"
   xmlns:inkscape="http://www.inkscape.org/namespaces/inkscape"
   width="22"
   height="22"
   id="svg3869"
   version="1.1"
   inkscape:version="0.91 r13725"
   sodipodi:docname="application-x-pem-key.svg">
  <defs
     id="defs3871" />
  <sodipodi:namedview
     id="base"
     pagecolor="#ffffff"
     bordercolor="#666666"
     borderopacity="1.0"
     inkscape:pageopacity="0.0"
     inkscape:pageshadow="2"
     inkscape:zoom="21.124655"
     inkscape:cx="4.1413605"
     inkscape:cy="11.024378"
     inkscape:document-units="px"
     inkscape:current-layer="layer1"
     showgrid="true"
     fit-margin-top="0"
     fit-margin-left="0"
     fit-margin-right="0"
     fit-margin-bottom="0"
     inkscape:window-width="1360"
     inkscape:window-height="708"
     inkscape:window-x="0"
     inkscape:window-y="0"
     inkscape:window-maximized="1"
     inkscape:showpageshadow="false">
    <inkscape:grid
       type="xygrid"
       id="grid4132" />
    <sodipodi:guide
       position="2,20.000017"
       orientation="18,0"
       id="guide4138" />
    <sodipodi:guide
       position="2,2.0000174"
       orientation="0,18"
       id="guide4140" />
    <sodipodi:guide
       position="20,2.0000174"
       orientation="-18,0"
       id="guide4142" />
    <sodipodi:guide
       position="20,20.000017"
       orientation="0,-18"
       id="guide4144" />
    <sodipodi:guide
       position="3,19.000017"
       orientation="16,0"
       id="guide4146" />
    <sodipodi:guide
       position="3,3.0000174"
       orientation="0,16"
       id="guide4148" />
    <sodipodi:guide
       position="19,3.0000174"
       orientation="-16,0"
       id="guide4150" />
    <sodipodi:guide
       position="19,19.000017"
       orientation="0,-16"
       id="guide4152" />
  </sodipodi:namedview>
  <metadata
     id="metadata3874">
    <rdf:RDF>
      <cc:Work
         rdf:about="">
        <dc:format>image/svg+xml</dc:format>
        <dc:type
           rdf:resource="http://purl.org/dc/dcmitype/StillImage" />
        <dc:title />
      </cc:Work>
    </rdf:RDF>
  </metadata>
  <g
     inkscape:label="Capa 1"
     inkscape:groupmode="layer"
     id="layer1"
     transform="translate(-326,-534.3622)">
    <path
       style="fill:#51db51;fill-opacity:1"
       d="M 13.734375 3.0214844 C 10.836845 3.0214844 8.4882812 5.3686019 8.4882812 8.2636719 C 8.4882812 9.0505519 8.6663325 9.7934506 8.9765625 10.462891 L 8.0800781 11.525391 L 8.0019531 12.521484 C 7.9939631 12.528884 7.0234375 12.558594 7.0234375 12.558594 L 6.5253906 12.919922 C 6.5253906 12.919922 6.5274375 14.006787 6.5234375 13.992188 L 5.4550781 14.009766 L 5.0039062 14.525391 L 4.9941406 15.5 C 4.9941406 15.5 4.0719156 15.439491 3.9785156 15.525391 L 3.9804688 15.527344 C 3.3914787 16.069864 2.9941406 16.457031 2.9941406 16.457031 L 2.9980469 19.005859 L 3.4980469 19.003906 L 10.291016 12.210938 C 10.747683 12.608798 11.276835 12.922077 11.851562 13.144531 C 12.437328 13.372465 13.069976 13.505859 13.736328 13.505859 C 16.634368 13.505859 18.982422 11.157309 18.982422 8.2617188 C 18.982422 5.3666387 16.633505 3.0207944 13.734375 3.0214844 z M 14.736328 5.5175781 C 15.701998 5.5175781 16.484375 6.3018881 16.484375 7.2675781 C 16.484375 8.2332581 15.701998 9.015625 14.736328 9.015625 C 13.770138 9.015625 12.986328 8.2332581 12.986328 7.2675781 C 12.986328 6.3018881 13.770138 5.5175781 14.736328 5.5175781 z "
       transform="translate(326,534.3622)"
       id="path5" />
    <path
       style="fill:#51db51;fill-opacity:1;opacity:0.5"
       d="M 14.736328 5.5175781 C 13.770138 5.5175781 12.986328 6.3018881 12.986328 7.2675781 C 12.986328 8.2332581 13.770138 9.015625 14.736328 9.015625 C 15.701998 9.015625 16.484375 8.2332581 16.484375 7.2675781 C 16.484375 6.3018881 15.701998 5.5175781 14.736328 5.5175781 z M 14.736328 6.5175781 C 15.149938 6.5175781 15.484375 6.8534581 15.484375 7.2675781 C 15.484375 7.6811981 15.149988 8.015625 14.736328 8.015625 C 14.322648 8.015625 13.986328 7.6811981 13.986328 7.2675781 C 13.986328 6.8534581 14.322648 6.5175781 14.736328 6.5175781 z M 10.291016 12.210938 L 3.4941406 19.007812 L 5.9921875 19.007812 L 11.925781 13.179688 C 11.320801 12.956357 10.768126 12.626607 10.291016 12.210938 z "
       transform="translate(326,534.3622)"
       id="path7" />
  </g>
</svg>

<?xml version="1.0" encoding="UTF-8"?><svg id="svg3869" width="22" height="22" version="1.1" xmlns="http://www.w3.org/2000/svg" xmlns:cc="http://creativecommons.org/ns#" xmlns:dc="http://purl.org/dc/elements/1.1/" xmlns:rdf="http://www.w3.org/1999/02/22-rdf-syntax-ns#">
 <metadata id="metadata3874">
  <rdf:RDF>
   <cc:Work rdf:about="">
    <dc:format>image/svg+xml</dc:format>
    <dc:type rdf:resource="http://purl.org/dc/dcmitype/StillImage"/>
    <dc:title/>
   </cc:Work>
  </rdf:RDF>
 </metadata>
 <g id="layer1" transform="translate(-326 -534.36)" fill="#51db51">
  <path id="path5" transform="translate(326 534.36)" d="m13.734 3.0215c-2.8975 0-5.2461 2.3471-5.2461 5.2422 0 0.78688 0.17805 1.5298 0.48828 2.1992l-0.89648 1.0625-0.078125 0.99609c-0.00799 0.0074-0.97852 0.03711-0.97852 0.03711l-0.49805 0.36133s0.0020469 1.0869-0.0019531 1.0723l-1.0684 0.017578-0.45117 0.51562-0.0097656 0.97461s-0.92222-0.060509-1.0156 0.025391l0.0019532 0.001953c-0.58899 0.54252-0.98633 0.92969-0.98633 0.92969l0.0039063 2.5488 0.5-0.001953 6.793-6.793c0.45667 0.39786 0.98582 0.71114 1.5605 0.93359 0.58577 0.22793 1.2184 0.36133 1.8848 0.36133 2.898 0 5.2461-2.3486 5.2461-5.2441 0-2.8951-2.3489-5.2409-5.248-5.2402zm1.002 2.4961c0.96567 0 1.748 0.78431 1.748 1.75 0 0.96568-0.78238 1.748-1.748 1.748-0.96619 0-1.75-0.78237-1.75-1.748 0-0.96569 0.78381-1.75 1.75-1.75z"/>
  <path id="path7" transform="translate(326 534.36)" d="m14.736 5.5176c-0.96619 0-1.75 0.78431-1.75 1.75 0 0.96568 0.78381 1.748 1.75 1.748 0.96567 0 1.748-0.78237 1.748-1.748 0-0.96569-0.78238-1.75-1.748-1.75zm0 1c0.41361 0 0.74805 0.33588 0.74805 0.75 0 0.41362-0.33439 0.74805-0.74805 0.74805-0.41368 0-0.75-0.33443-0.75-0.74805 0-0.41412 0.33632-0.75 0.75-0.75zm-4.4453 5.6934-6.7969 6.7969h2.498l5.9336-5.8281c-0.60498-0.22333-1.1577-0.55308-1.6348-0.96875z" opacity=".5"/>
 </g>
</svg>
